svg/device/barcode_scan_fill.svg

<?xml version="1.0" encoding="UTF-8"?>
<svg width="24px" height="24px" viewBox="0 0 24 24" version="1.1" xmlns="http://www.w3.org/2000/svg" xmlns:xlink="http://www.w3.org/1999/xlink">
    <title>barcode_scan_fill</title>
    <g id="Icon" stroke="none" stroke-width="1" fill="none" fill-rule="evenodd">
        <g id="Device" transform="translate(-864.000000, -336.000000)" fill-rule="nonzero">
            <g id="barcode_scan_fill" transform="translate(864.000000, 336.000000)">
                <path d="M24,0 L24,24 L0,24 L0,0 L24,0 Z M12.5935,23.2578 L12.5819,23.2595 L12.5109,23.295 L12.4919,23.2987 L12.4767,23.295 L12.4057,23.2595 C12.3958,23.2564 12.387,23.259 12.3821,23.2649 L12.378,23.2758 L12.3609,23.7031 L12.3659,23.7235 L12.3769,23.7357 L12.4805,23.8097 L12.4953,23.8136 L12.5071,23.8097 L12.6107,23.7357 L12.6233,23.7197 L12.6267,23.7031 L12.6096,23.2758 C12.6076,23.2657 12.601,23.2593 12.5935,23.2578 Z M12.8584,23.1453 L12.8445,23.1473 L12.6598,23.2397 L12.6499,23.2499 L12.6472,23.2611 L12.6651,23.6906 L12.6699,23.7034 L12.6784,23.7105 L12.8793,23.8032 C12.8914,23.8069 12.9022,23.803 12.9078,23.7952 L12.9118,23.7812 L12.8777,23.1665 C12.8753,23.1546 12.8674,23.147 12.8584,23.1453 Z M12.143,23.1473 C12.1332,23.1424 12.1222,23.1453 12.1156,23.1526 L12.1099,23.1665 L12.0758,23.7812 C12.0751,23.7927 12.0828,23.8019 12.0926,23.8046 L12.1083,23.8032 L12.3092,23.7105 L12.3186,23.7024 L12.3225,23.6906 L12.3404,23.2611 L12.3372,23.2485 L12.3278,23.2397 L12.143,23.1473 Z" id="MingCute"></path>
                <path d="M7,5.5 L5.5,5.5 L5.5,7 C5.5,7.82843 4.82843,8.5 4,8.5 C3.17157,8.5 2.5,7.82843 2.5,7 L2.5,5 C2.5,3.61929 3.61929,2.5 5,2.5 L7,2.5 C7.82843,2.5 8.5,3.17157 8.5,4 C8.5,4.82843 7.82843,5.5 7,5.5 Z M17,2.5 C16.1716,2.5 15.5,3.17157 15.5,4 C15.5,4.82843 16.1716,5.5 17,5.5 L18.5,5.5 L18.5,7 C18.5,7.82843 19.1716,8.5 20,8.5 C20.8284,8.5 21.5,7.82843 21.5,7 L21.5,5 C21.5,3.61929 20.3807,2.5 19,2.5 L17,2.5 Z M5.5,17 C5.5,16.1716 4.82843,15.5 4,15.5 C3.17157,15.5 2.5,16.1716 2.5,17 L2.5,19 C2.5,20.3807 3.61929,21.5 5,21.5 L7,21.5 C7.82843,21.5 8.5,20.8284 8.5,20 C8.5,19.1716 7.82843,18.5 7,18.5 L5.5,18.5 L5.5,17 Z M21.5,17 C21.5,16.1716 20.8284,15.5 20,15.5 C19.1716,15.5 18.5,16.1716 18.5,17 L18.5,18.5 L17,18.5 C16.1716,18.5 15.5,19.1716 15.5,20 C15.5,20.8284 16.1716,21.5 17,21.5 L19,21.5 C20.3807,21.5 21.5,20.3807 21.5,19 L21.5,17 Z M9,10 C9,9.44772 8.55228,9 8,9 C7.44772,9 7,9.44772 7,10 L7,14 C7,14.5523 7.44772,15 8,15 C8.55228,15 9,14.5523 9,14 C9,14.5523 9.44772,15 10,15 C10.5523,15 11,14.5523 11,14 L11,10 C11,9.44772 10.5523,9 10,9 C9.44772,9 9,9.44772 9,10 Z M14,10 C14,9.44772 13.5523,9 13,9 C12.4477,9 12,9.44772 12,10 L12,14 C12,14.5523 12.4477,15 13,15 C13.5523,15 14,14.5523 14,14 L14,10 Z M16,9 C16.1821,9 16.3529,9.0487 16.5,9.13378 C16.6471,9.0487 16.8179,9 17,9 C17.5523,9 18,9.44772 18,10 L18,14 C18,14.5523 17.5523,15 17,15 C16.8179,15 16.6471,14.9513 16.5,14.8662 C16.3529,14.9513 16.1821,15 16,15 C15.4477,15 15,14.5523 15,14 L15,10 C15,9.44772 15.4477,9 16,9 Z M5,11 C5,10.4477 4.55228,10 4,10 C3.44772,10 3,10.4477 3,11 L3,13 C3,13.5523 3.44772,14 4,14 C4.55228,14 5,13.5523 5,13 L5,11 Z M21,11 C21,10.4477 20.5523,10 20,10 C19.4477,10 19,10.4477 19,11 L19,13 C19,13.5523 19.4477,14 20,14 C20.5523,14 21,13.5523 21,13 L21,11 Z" id="形状" fill="#09244B"></path>
            </g>
        </g>
    </g>
</svg>

<svg xmlns="http://www.w3.org/2000/svg" width="24" height="24"><g fill="none" fill-rule="nonzero"><path d="M24 0v24H0V0h24ZM12.594 23.258l-.012.002-.071.035-.02.004-.014-.004-.071-.036c-.01-.003-.019 0-.024.006l-.004.01-.017.428.005.02.01.013.104.074.015.004.012-.004.104-.074.012-.016.004-.017-.017-.427c-.002-.01-.009-.017-.016-.018Zm.264-.113-.014.002-.184.093-.01.01-.003.011.018.43.005.012.008.008.201.092c.012.004.023 0 .029-.008l.004-.014-.034-.614c-.003-.012-.01-.02-.02-.022Zm-.715.002a.023.023 0 0 0-.027.006l-.006.014-.034.614c0 .012.007.02.017.024l.015-.002.201-.093.01-.008.003-.011.018-.43-.003-.012-.01-.01-.184-.092Z"/><path fill="#09244B" d="M7 5.5H5.5V7a1.5 1.5 0 1 1-3 0V5A2.5 2.5 0 0 1 5 2.5h2a1.5 1.5 0 1 1 0 3Zm10-3a1.5 1.5 0 0 0 0 3h1.5V7a1.5 1.5 0 0 0 3 0V5A2.5 2.5 0 0 0 19 2.5h-2ZM5.5 17a1.5 1.5 0 0 0-3 0v2A2.5 2.5 0 0 0 5 21.5h2a1.5 1.5 0 0 0 0-3H5.5V17Zm16 0a1.5 1.5 0 0 0-3 0v1.5H17a1.5 1.5 0 0 0 0 3h2a2.5 2.5 0 0 0 2.5-2.5v-2ZM9 10a1 1 0 0 0-2 0v4a1 1 0 1 0 2 0 1 1 0 1 0 2 0v-4a1 1 0 1 0-2 0Zm5 0a1 1 0 1 0-2 0v4a1 1 0 1 0 2 0v-4Zm2-1c.182 0 .353.049.5.134A1 1 0 0 1 18 10v4a1 1 0 0 1-1.5.866A1 1 0 0 1 15 14v-4a1 1 0 0 1 1-1ZM5 11a1 1 0 1 0-2 0v2a1 1 0 1 0 2 0v-2Zm16 0a1 1 0 1 0-2 0v2a1 1 0 1 0 2 0v-2Z"/></g></svg>
